X:597
T: ICH WILL IN GARTEN GEHN
N: E1914
O: Europa, Mitteleuropa, Deutschland, Westfalen, Paderborn
R: Kinder - Lied, religioes
M: 3/4
L: 1/8
K: A
E2 | A3GAB | =cAB2
e2 | d=cB2d2 | =cBA2c2 | B4e2 | =c4
E2 | A3GAB | =cAB4 |
e3de2 | d=cB4 |
B2e2d2 | d=cB4 |
B2dcB2 | =cBA2c2 | B4e2 | A4

@@@ Tune index: 5281
